X: 6
T: Lady Lane - Farewell To Whalley Range - Michael Russell's
C:
M: 6/8
L: 1/8
R: jig
K: Gmaj
P:A
Bc |: dBG GBd | dAG FAD | D (3DDD FAD | FGA ABc |
dBG GBd | cAG FAD | D (3DDD FAd | cAF ~G3 :|
d (3Bcd gdB | ~c2e dge| dBG ~G2E | FAG FAD |
d (3Bcd gdB | c2e dge | d (3BAG BdB |cAF ~G3 |
d (3Bcd gdB | ~c2e dge | dBg e (3dcB |ABc def |
~g2b gdB | ~c2e dge | d (3BAG BdB | cAF G3 ||
P:B
M: 9/8
K: Amaj
F2c BA~F- F2E|F2c BAc fec|B3 BAB c2A|1~B3 BAB cBA:|2~B3 BAB cef||
a3 fec fec|B3 BAB cef|a3 baf afe|fec Bce fec|
a2f fec fec|B3 BAB cef|a3 baf afe|fec fec BAB||
P:C
M: 12/8
K: Dmaj
A3 A2F ABA F2E|DFA B2A B2A F3|dcd a2g f2d B2A|1 BcA BAB d2d dcB :|2 BcA BAB d3 dz2||
dcd a2g f2d B2A |BcA BcA B2A F3 |dcd a2g f2d B2A |BcA BAB d3 dz2:||

